Newaita-dark/apps/48/gdm-xnest.svg

<svg height="48pt" viewBox="0 0 48 48" width="48pt" xmlns="http://www.w3.org/2000/svg" xmlns:xlink="http://www.w3.org/1999/xlink"><linearGradient id="a" gradientUnits="userSpaceOnUse" x1="23.81478" x2="23.81478" y1="42.0509015" y2="44.03546750005"><stop offset="0" stop-opacity=".27451"/><stop offset="1" stop-opacity="0"/></linearGradient><linearGradient id="b"><stop offset="0" stop-opacity=".313726"/><stop offset=".222222" stop-opacity=".27451"/><stop offset="1" stop-opacity="0"/></linearGradient><radialGradient id="c" cx="450.908936" cy="189.579361" gradientTransform="matrix(.00000026 -.117199 -.210958 -.00000015 80.180537 95.392996)" gradientUnits="userSpaceOnUse" r="21.166656" xlink:href="#b"/><radialGradient id="d" cx="450.908936" cy="189.579361" gradientTransform="matrix(-.00000026 .117199 .210958 .00000015 -32.550992 -11.291221)" gradientUnits="userSpaceOnUse" r="21.166656" xlink:href="#b"/><radialGradient id="e" cx="450.908936" cy="189.579361" gradientTransform="matrix(-.00000026 -.117199 .210958 -.00000015 -32.550992 95.392996)" gradientUnits="userSpaceOnUse" r="21.166656" xlink:href="#b"/><radialGradient id="f" cx="450.908936" cy="189.579361" gradientTransform="matrix(.00000026 .117199 -.210958 .00000015 80.180534 -11.291222)" gradientUnits="userSpaceOnUse" r="21.166656" xlink:href="#b"/><linearGradient id="g" gradientTransform="matrix(.113024 0 0 .326118 -8.78102 50.462022)" gradientUnits="userSpaceOnUse" x1="306.916656" x2="305.954559" y1="-25.791676" y2="-135.329163"><stop offset="0" stop-color="#bdbdbd"/><stop offset="1" stop-color="#e0e0e0"/></linearGradient><linearGradient id="h" gradientTransform="matrix(4.556143 0 0 13.146184 -353.972656 2034.180176)" gradientUnits="userSpaceOnUse" x1="306.916656" x2="305.954559" y1="-25.791676" y2="-135.329163"><stop offset="0" stop-color="#424242"/><stop offset="1" stop-color="#616161"/></linearGradient><path d="m6.945312 42.050781h33.738282v1.984375h-33.738282zm0 0" fill="url(#a)"/><path d="m40.683594 42.050781h3.96875v-1.984375h-3.96875zm0 0" fill="url(#c)"/><path d="m6.945312 42.050781h-3.96875v1.984375h3.96875zm0 0" fill="url(#d)"/><path d="m6.945312 42.050781h-3.96875v-1.984375h3.96875zm0 0" fill="url(#e)"/><path d="m40.683594 42.050781h3.96875v1.984375h-3.96875zm0 0" fill="url(#f)"/><path d="m4.960938 6.328125h37.707031c1.097656 0 1.984375.890625 1.984375 1.984375v31.753906c0 1.097656-.886719 1.984375-1.984375 1.984375h-37.707031c-1.09375 0-1.984376-.886719-1.984376-1.984375v-31.753906c0-1.09375.890626-1.984375 1.984376-1.984375zm0 0" fill="url(#g)"/><path d="m2.976562 14.265625h41.675782v.992187h-41.675782zm0 0" fill="#0a0d0e" fill-opacity=".235294"/><path d="m4.960938 42.070312c-1.097657 0-1.984376-.886718-1.984376-1.984374v-.515626c0 1.097657.886719 1.984376 1.984376 1.984376h37.707031c1.101562 0 1.984375-.886719 1.984375-1.984376v.515626c0 1.097656-.882813 1.984374-1.984375 1.984374zm0 0" fill-opacity=".235294"/><path d="m199.980913 255.093763c-44.247745 0-79.992365 35.74462-79.992365 79.992366v239.977096h1679.997137v-239.977096c0-44.247746-35.587155-79.992366-79.992365-79.992366zm0 0" fill="url(#h)" stroke="#212121" stroke-linecap="round" stroke-width="11.338583" transform="scale(.0248071)"/><path d="m4.960938 6.441406c-1.097657 0-1.984376.886719-1.984376 1.988282v.515624c0-1.101562.886719-1.984374 1.984376-1.984374h37.707031c1.101562 0 1.984375.882812 1.984375 1.984374v-.515624c0-1.101563-.882813-1.988282-1.984375-1.988282zm0 0" fill="#fff" fill-opacity=".392157"/><path d="m4.960938 6.1875c-1.175782 0-2.125.949219-2.125 2.125v31.753906c0 1.175782.949218 2.125 2.125 2.125h37.707031c1.175781 0 2.125-.949218 2.125-2.125v-31.753906c0-1.175781-.949219-2.125-2.125-2.125zm0 .28125h37.707031c1.023437 0 1.84375.820312 1.84375 1.84375v31.753906c0 1.023438-.820313 1.84375-1.84375 1.84375h-37.707031c-1.023438 0-1.84375-.820312-1.84375-1.84375v-31.753906c0-1.023438.820312-1.84375 1.84375-1.84375zm0 0" fill="#212121"/></svg>

<?xml version="1.0" encoding="UTF-8"?>
<svg xmlns="http://www.w3.org/2000/svg" xmlns:xlink="http://www.w3.org/1999/xlink" width="48pt" height="48pt" viewBox="0 0 48 48" version="1.1">
<defs>
<linearGradient id="linear0" gradientUnits="userSpaceOnUse" x1="254" y1="233.5" x2="254" y2="254.666672" gradientTransform="matrix(0.093759,0,0,0.093759,-0.00000572259,20.158175)">
<stop offset="0" style="stop-color:rgb(0%,0%,0%);stop-opacity:0.27451;"/>
<stop offset="1" style="stop-color:rgb(0%,0%,0%);stop-opacity:0;"/>
</linearGradient>
<radialGradient id="radial0" gradientUnits="userSpaceOnUse" cx="450.908936" cy="189.579361" fx="450.908936" fy="189.579361" r="21.166656" gradientTransform="matrix(0.000000261256,-0.117199,-0.210958,-0.000000152308,80.180537,95.392996)">
<stop offset="0" style="stop-color:rgb(0%,0%,0%);stop-opacity:0.313726;"/>
<stop offset="0.222222" style="stop-color:rgb(0%,0%,0%);stop-opacity:0.27451;"/>
<stop offset="1" style="stop-color:rgb(0%,0%,0%);stop-opacity:0;"/>
</radialGradient>
<radialGradient id="radial1" gradientUnits="userSpaceOnUse" cx="450.908936" cy="189.579361" fx="450.908936" fy="189.579361" r="21.166656" gradientTransform="matrix(-0.000000261256,0.117199,0.210958,0.000000152308,-32.550992,-11.291221)">
<stop offset="0" style="stop-color:rgb(0%,0%,0%);stop-opacity:0.313726;"/>
<stop offset="0.222222" style="stop-color:rgb(0%,0%,0%);stop-opacity:0.27451;"/>
<stop offset="1" style="stop-color:rgb(0%,0%,0%);stop-opacity:0;"/>
</radialGradient>
<radialGradient id="radial2" gradientUnits="userSpaceOnUse" cx="450.908936" cy="189.579361" fx="450.908936" fy="189.579361" r="21.166656" gradientTransform="matrix(-0.000000261256,-0.117199,0.210958,-0.000000152308,-32.550992,95.392996)">
<stop offset="0" style="stop-color:rgb(0%,0%,0%);stop-opacity:0.313726;"/>
<stop offset="0.222222" style="stop-color:rgb(0%,0%,0%);stop-opacity:0.27451;"/>
<stop offset="1" style="stop-color:rgb(0%,0%,0%);stop-opacity:0;"/>
</radialGradient>
<radialGradient id="radial3" gradientUnits="userSpaceOnUse" cx="450.908936" cy="189.579361" fx="450.908936" fy="189.579361" r="21.166656" gradientTransform="matrix(0.000000261256,0.117199,-0.210958,0.000000152308,80.180534,-11.291222)">
<stop offset="0" style="stop-color:rgb(0%,0%,0%);stop-opacity:0.313726;"/>
<stop offset="0.222222" style="stop-color:rgb(0%,0%,0%);stop-opacity:0.27451;"/>
<stop offset="1" style="stop-color:rgb(0%,0%,0%);stop-opacity:0;"/>
</radialGradient>
<linearGradient id="linear1" gradientUnits="userSpaceOnUse" x1="306.916656" y1="-25.791676" x2="305.954559" y2="-135.329163" gradientTransform="matrix(0.113024,0,0,0.326118,-8.78102,50.462022)">
<stop offset="0" style="stop-color:rgb(74.117649%,74.117649%,74.117649%);stop-opacity:1;"/>
<stop offset="1" style="stop-color:rgb(87.843138%,87.843138%,87.843138%);stop-opacity:1;"/>
</linearGradient>
<linearGradient id="linear2" gradientUnits="userSpaceOnUse" x1="306.916656" y1="-25.791676" x2="305.954559" y2="-135.329163" gradientTransform="matrix(4.556143,0,0,13.146184,-353.972656,2034.180176)">
<stop offset="0" style="stop-color:rgb(25.882354%,25.882354%,25.882354%);stop-opacity:1;"/>
<stop offset="1" style="stop-color:rgb(38.039216%,38.039216%,38.039216%);stop-opacity:1;"/>
</linearGradient>
</defs>
<g id="surface1">
<path style=" stroke:none;fill-rule:nonzero;fill:url(#linear0);" d="M 6.945312 42.050781 L 40.683594 42.050781 L 40.683594 44.035156 L 6.945312 44.035156 Z M 6.945312 42.050781 "/>
<path style=" stroke:none;fill-rule:nonzero;fill:url(#radial0);" d="M 40.683594 42.050781 L 44.652344 42.050781 L 44.652344 40.066406 L 40.683594 40.066406 Z M 40.683594 42.050781 "/>
<path style=" stroke:none;fill-rule:nonzero;fill:url(#radial1);" d="M 6.945312 42.050781 L 2.976562 42.050781 L 2.976562 44.035156 L 6.945312 44.035156 Z M 6.945312 42.050781 "/>
<path style=" stroke:none;fill-rule:nonzero;fill:url(#radial2);" d="M 6.945312 42.050781 L 2.976562 42.050781 L 2.976562 40.066406 L 6.945312 40.066406 Z M 6.945312 42.050781 "/>
<path style=" stroke:none;fill-rule:nonzero;fill:url(#radial3);" d="M 40.683594 42.050781 L 44.652344 42.050781 L 44.652344 44.035156 L 40.683594 44.035156 Z M 40.683594 42.050781 "/>
<path style=" stroke:none;fill-rule:nonzero;fill:url(#linear1);" d="M 4.960938 6.328125 L 42.667969 6.328125 C 43.765625 6.328125 44.652344 7.21875 44.652344 8.3125 L 44.652344 40.066406 C 44.652344 41.164062 43.765625 42.050781 42.667969 42.050781 L 4.960938 42.050781 C 3.867188 42.050781 2.976562 41.164062 2.976562 40.066406 L 2.976562 8.3125 C 2.976562 7.21875 3.867188 6.328125 4.960938 6.328125 Z M 4.960938 6.328125 "/>
<path style=" stroke:none;fill-rule:nonzero;fill:rgb(3.921569%,5.098039%,5.490196%);fill-opacity:0.235294;" d="M 2.976562 14.265625 L 44.652344 14.265625 L 44.652344 15.257812 L 2.976562 15.257812 Z M 2.976562 14.265625 "/>
<path style=" stroke:none;fill-rule:nonzero;fill:rgb(0%,0%,0%);fill-opacity:0.235294;" d="M 4.960938 42.070312 C 3.863281 42.070312 2.976562 41.183594 2.976562 40.085938 L 2.976562 39.570312 C 2.976562 40.667969 3.863281 41.554688 4.960938 41.554688 L 42.667969 41.554688 C 43.769531 41.554688 44.652344 40.667969 44.652344 39.570312 L 44.652344 40.085938 C 44.652344 41.183594 43.769531 42.070312 42.667969 42.070312 Z M 4.960938 42.070312 "/>
<path style="fill-rule:nonzero;fill:url(#linear2);stroke-width:11.338583;stroke-linecap:round;stroke-linejoin:miter;stroke:rgb(12.941177%,12.941177%,12.941177%);stroke-opacity:1;stroke-miterlimit:4;" d="M 199.980913 255.093763 C 155.733168 255.093763 119.988548 290.838383 119.988548 335.086129 L 119.988548 575.063225 L 1799.985685 575.063225 L 1799.985685 335.086129 C 1799.985685 290.838383 1764.39853 255.093763 1719.99332 255.093763 Z M 199.980913 255.093763 " transform="matrix(0.0248071,0,0,0.0248071,0,0)"/>
<path style=" stroke:none;fill-rule:nonzero;fill:rgb(100%,100%,100%);fill-opacity:0.392157;" d="M 4.960938 6.441406 C 3.863281 6.441406 2.976562 7.328125 2.976562 8.429688 L 2.976562 8.945312 C 2.976562 7.84375 3.863281 6.960938 4.960938 6.960938 L 42.667969 6.960938 C 43.769531 6.960938 44.652344 7.84375 44.652344 8.945312 L 44.652344 8.429688 C 44.652344 7.328125 43.769531 6.441406 42.667969 6.441406 Z M 4.960938 6.441406 "/>
<path style=" stroke:none;fill-rule:nonzero;fill:rgb(12.941177%,12.941177%,12.941177%);fill-opacity:1;" d="M 4.960938 6.1875 C 3.785156 6.1875 2.835938 7.136719 2.835938 8.3125 L 2.835938 40.066406 C 2.835938 41.242188 3.785156 42.191406 4.960938 42.191406 L 42.667969 42.191406 C 43.84375 42.191406 44.792969 41.242188 44.792969 40.066406 L 44.792969 8.3125 C 44.792969 7.136719 43.84375 6.1875 42.667969 6.1875 Z M 4.960938 6.46875 L 42.667969 6.46875 C 43.691406 6.46875 44.511719 7.289062 44.511719 8.3125 L 44.511719 40.066406 C 44.511719 41.089844 43.691406 41.910156 42.667969 41.910156 L 4.960938 41.910156 C 3.9375 41.910156 3.117188 41.089844 3.117188 40.066406 L 3.117188 8.3125 C 3.117188 7.289062 3.9375 6.46875 4.960938 6.46875 Z M 4.960938 6.46875 "/>
</g>
</svg>
